X:132 
T:Maggie Shanley's Slide 
B:CRE3.037 (SleamhnÃÂÃÂÃÂÃÂ¡n MhÃÂÃÂÃÂÃÂ¡irÃÂÃÂÃÂÃÂ©ad Nic Sheanlaoich)
F:file ID: cre.3/132maggie
N:From Martin Mulvihill. There's another version of this
in mvbt2 and also Martin's recording of it on Tune Vault.
R:slide
Q:180
M:12/8
L:1/8
K:A 
A2B c2e dcB A3|A2B c2e f3 e3|
A2B c2e dcB A2B|c2e dcB A3 A3:|
f2e c2e dcB A3|f2e c2e f3 e3|
f2e c2e dcB A3|c2e dcB A3 A3:| 

%%%

